assets/icons/beaker.svg

<?xml version="1.0" encoding="UTF-8" standalone="no"?>
<svg viewBox="0 0 24 24" height="24" id="svg7384" version="1.1" width="24" sodipodi:docname="beaker.svg" inkscape:version="1.1.2 (08b2f3d93c, 2022-04-05)"
   xmlns:inkscape="http://www.inkscape.org/namespaces/inkscape"
   xmlns:sodipodi="http://sodipodi.sourceforge.net/DTD/sodipodi-0.dtd"
   xmlns="http://www.w3.org/2000/svg"
   xmlns:svg="http://www.w3.org/2000/svg"
   xmlns:rdf="http://www.w3.org/1999/02/22-rdf-syntax-ns#"
   xmlns:cc="http://creativecommons.org/ns#"
   xmlns:dc="http://purl.org/dc/elements/1.1/">
   <sodipodi:namedview id="namedview25" pagecolor="#ffffff" bordercolor="#666666" borderopacity="1.0" inkscape:pageshadow="2" inkscape:pageopacity="0.0" inkscape:pagecheckerboard="0" showgrid="true" inkscape:zoom="22.627417" inkscape:cx="25.212776" inkscape:cy="12.241786" inkscape:window-width="1920" inkscape:window-height="1043" inkscape:window-x="1920" inkscape:window-y="0" inkscape:window-maximized="1" inkscape:current-layer="svg7384">
      <inkscape:grid type="xygrid" id="grid27" />
      <inkscape:grid type="xygrid" id="grid1495" dotted="true" spacingx="0.5" spacingy="0.5" empspacing="10" />
   </sodipodi:namedview>
   <metadata id="metadata20854">
      <rdf:RDF>
         <cc:Work rdf:about="">
            <dc:format>image/svg+xml</dc:format>
            <dc:type rdf:resource="http://purl.org/dc/dcmitype/StillImage" />
         </cc:Work>
      </rdf:RDF>
   </metadata>
   <defs id="defs7386">
      <linearGradient id="linearGradient5606" inkscape:swatch="solid">
         <stop id="stop5608" offset="0" style="stop-color:#000000;stop-opacity:1;" />
      </linearGradient>
      <linearGradient id="linearGradient4526" inkscape:swatch="solid">
         <stop id="stop4528" offset="0" style="stop-color:#ffffff;stop-opacity:1;" />
      </linearGradient>
      <linearGradient id="linearGradient3600-4" inkscape:swatch="gradient">
         <stop id="stop3602-7" offset="0" style="stop-color:#f4f4f4;stop-opacity:1" />
         <stop id="stop3604-6" offset="1" style="stop-color:#dbdbdb;stop-opacity:1" />
      </linearGradient>
   </defs>
   <path id="rect1184" style="color:#000000;fill:#808080;fill-rule:evenodd;stroke-linecap:square;stroke-linejoin:round;-inkscape-stroke:none" d="M 7.5 2 C 7.223 2 7 2.223 7 2.5 C 7 2.777 7.223 3 7.5 3 L 9 3 L 9 6.3945312 L 4.0410156 17.800781 A 0.5 0.5 0 0 0 4.0019531 18 L 4 18 L 4 18.5 C 4 20.430349 5.5696505 22 7.5 22 L 16.5 22 C 18.430349 22 20 20.430349 20 18.5 L 20 18.03125 A 0.5 0.5 0 0 0 20 18.025391 A 0.5 0.5 0 0 0 20 18.019531 A 0.5 0.5 0 0 0 20 18.009766 A 0.5 0.5 0 0 0 20 18.003906 A 0.5 0.5 0 0 0 20 18 A 0.5 0.5 0 0 0 19.958984 17.800781 L 15 6.3945312 L 15 3 L 16.5 3 C 16.777 3 17 2.777 17 2.5 C 17 2.223 16.777 2 16.5 2 L 7.5 2 z M 10 3 L 14 3 L 14 6.5 A 0.5 0.5 0 0 0 14 6.5039062 A 0.5 0.5 0 0 0 14.003906 6.5214844 A 0.5 0.5 0 0 0 14.035156 6.6738281 A 0.5 0.5 0 0 0 14.041016 6.6992188 L 19 18.105469 L 19 18.5 C 19 19.893647 17.893647 21 16.5 21 L 7.5 21 C 6.1063528 21 5 19.893647 5 18.5 L 5 18.105469 L 9.9589844 6.6992188 A 0.5 0.5 0 0 0 10 6.46875 L 10 3 z M 9.0546875 12 L 6.5546875 17.748047 L 6.5546875 18.054688 C 6.5546875 19.138635 7.4160521 20 8.5 20 L 15.5 20 C 16.583948 20 17.445312 19.138635 17.445312 18.054688 L 17.445312 17.748047 L 14.945312 12 L 9.0546875 12 z " />
</svg>

<svg height="24" width="24" xmlns="http://www.w3.org/2000/svg"><path style="color:#000;fill:gray;stroke-linecap:square;stroke-linejoin:round;-inkscape-stroke:none" d="M7.5 2a.499.499 0 1 0 0 1H9v3.395L4.041 17.8a.5.5 0 0 0-.039.199H4v.5A3.504 3.504 0 0 0 7.5 22h9c1.93 0 3.5-1.57 3.5-3.5v-.469a.5.5 0 0 0 0-.006.5.5 0 0 0 0-.005.5.5 0 0 0 0-.01.5.5 0 0 0 0-.006.5.5 0 0 0 0-.004.5.5 0 0 0-.041-.2L15 6.396V3h1.5a.499.499 0 1 0 0-1h-9zM10 3h4v3.5a.5.5 0 0 0 0 .004.5.5 0 0 0 .004.017.5.5 0 0 0 .031.153.5.5 0 0 0 .006.025L19 18.105v.395c0 1.394-1.106 2.5-2.5 2.5h-9A2.484 2.484 0 0 1 5 18.5v-.395L9.959 6.7A.5.5 0 0 0 10 6.47V3zm-.945 9-2.5 5.748v.307C6.555 19.139 7.416 20 8.5 20h7a1.933 1.933 0 0 0 1.945-1.945v-.307L14.945 12h-5.89z"/></svg>
